X:565
T:St. Patrick's day in the Morning
T:Barbary Bells
A:Wyresdale, Lancashire
B:E and J Winder, 1835-41
L:1/8
M:6/8
N:See other version X:105
O:England
Z:Richard Robinson 
%%TUNEURL: http://www.leeds.ac.uk/music/Info/RRTuneBk/gettune/00000edd.html
%%ID:00000edd
K:C
GAG GAB | ded dBG | BAB BGE | EFE E2D | \
GAG GAB | ded dBG | BAB BGE | E3 G3 ::
def g2e | f2d e2c | def g2e | f2d e3 | \
def g2e | efg def | g2e f2d | e6 |
dBG GAB | ded dBG | BAB BGE | EFE E2D |\
GAG GAB | ded dBG | BAB BGE | E3 G3 |]
